icon/cg/path-exclude.svg

<svg width="24" height="24" fill="none" xmlns="http://www.w3.org/2000/svg"><path fill-rule="evenodd" clip-rule="evenodd" d="M5 5h10v4H9v6H5V5Zm4 10v4h10V9h-4v6H9Z" fill="currentColor"/></svg>

<svg viewBox="0 0 24 24" fill="none" xmlns="http://www.w3.org/2000/svg" height="1em" width="1em">
  <path fill-rule="evenodd" clip-rule="evenodd" d="M5 5H15V9H9V15H5V5ZM9 15V19H19V9H15V15H9Z" fill="currentColor"/>
</svg>
